X:16
T:Traveller. WR1776.16, The
B:Wm.Randall CDs 1776
Z:vmp.Steve Mansfield 2015
M:C
L:1/8
W:Cast off 1 Cu. hands 3 round at top with the Lady
W:then the same with the Gent: lead thro' the
W:bott: cast up right & left at top
Q:2/4=75
K:G
gbdg egce | dBAG GFED | Ec Be dcBA | Bge^c d2D2 :|
|: dfgB cfaf | gdcB AFED | Ec Be dbBd | cAGF G2G,2 :|

